X:617
T:Reely Snakey Eighty
C:Colin Hume, 2009
L:1/4
M:2/2
S:Colin Hume's website,  colinhume.com  - chords can also be printed below the stave.
Q:1/2=116
H:For the dance by Sue Carter
K:C
P:A
[| "C"e2 c2 | "C"G3/c/Bc | "F"A3/c/ Bc | "C"G3 c |\
"G7"d2 e2 | "G7"f3/e/ df | "D7"e3/d/ e^f | "G"g3 f |
"C"e2 c2 | "C"G3/e/fg | "F"agfe | "G"d3 c/d/ |\
"Am"eA Ac/d/ | "F7"_eA Ac/d/ | "E7"ed cB | "Am"A2 "G7"B2 |
P:B
|: "C"G/cG/dG/e/- | "C"e/G/d cB | "Dm"A/d^c/ de/f/- | "G7"f/B/d/f/ ag |\
"C"G/cG/dG/e/- | "C"e/G/d cB | "Dm"A/aA/gf | "G7"ed "C"cz :|
P:C
"G7"dG eG/f/- | "G7"f/G/e dB | "C"eG fG/g/- | "C"g/G/f ec |\
"D7"^fA gA/a/- | "D7"a/A/g ^fd | "G"g "^(Break  -  -  -  -  -  -  -  -  -) "z z2 | G/^G/A/^A/ B/c/^c/d/ |
"C"e2 c2 | "C7"G3/e/fg | "F"a2 f2 | "G"d2 ef |\
"Am"e2 dc | "F"Ac2A | "C/G"G3/A/ Bc | "G7"ed "C"c2 |]

